dist/images/icons/icon-category-pizza.svg

<svg width="44" height="44" viewBox="0 0 44 44" fill="none" xmlns="http://www.w3.org/2000/svg">
<g clip-path="url(#clip0_669_763)">
<path d="M43.7453 43.7521C43.5105 43.9838 43.1634 44.0612 42.8529 43.95L7.15858 31.2229C5.91851 31.9812 4.3456 32.1588 2.90297 31.5614C0.508321 30.5694 -0.633013 27.8142 0.358876 25.4194C2.698 19.7726 6.07526 14.718 10.3971 10.3962C14.719 6.07428 19.7735 2.69694 25.4204 0.357899C26.0068 0.11504 26.6146 5.57901e-05 27.2131 5.57901e-05C29.0586 0.000141727 30.8133 1.0937 31.5623 2.90207C32.0662 4.11878 32.0186 5.42829 31.5366 6.55269L43.9546 42.8624C44.0614 43.1745 43.9801 43.5204 43.7453 43.7521ZM12.5632 31.3252L16.3461 32.6739C16.7903 32.2008 17.0067 31.5494 16.92 30.8906C16.8435 30.3105 16.5459 29.7948 16.0817 29.4386C15.6176 29.0824 15.0428 28.9285 14.4623 29.0047C13.8823 29.0811 13.3667 29.3787 13.0105 29.8429C12.6823 30.2706 12.5261 30.7924 12.5632 31.3252ZM29.9743 3.55992C29.3451 2.04072 27.597 1.3167 26.0781 1.94611C15.0747 6.5038 6.50477 15.0738 1.94691 26.0772C1.64209 26.8131 1.64209 27.6236 1.94691 28.3595C2.25173 29.0954 2.82485 29.6685 3.56073 29.9734C4.29661 30.2782 5.10717 30.2782 5.84305 29.9734C6.57893 29.6685 7.15205 29.0954 7.45687 28.3595C9.40773 23.6496 12.2248 19.4337 15.8297 15.8288C19.4346 12.2239 23.6505 9.40693 28.3604 7.45598C29.8796 6.82683 30.6037 5.07895 29.9743 3.55992ZM37.6093 29.6203C37.5315 29.6221 37.4536 29.6266 37.376 29.6368C36.796 29.7131 36.2803 30.0108 35.9242 30.475C35.568 30.9391 35.4139 31.5143 35.4902 32.0943C35.6479 33.2918 36.7501 34.1375 37.948 33.9801C38.3175 33.9315 38.6644 33.7881 38.9603 33.5701L37.6093 29.6203ZM39.5315 35.2411C39.1128 35.4691 38.6528 35.6209 38.1722 35.6842C36.0349 35.9663 34.0675 34.4558 33.7862 32.3186C33.6499 31.2834 33.9249 30.257 34.5606 29.4286C35.1729 28.6307 36.0494 28.1094 37.0382 27.9504L35.3301 22.9558L33.3658 24.4631C32.9893 24.7519 32.4497 24.6811 32.1608 24.3045C31.8719 23.9279 31.943 23.3885 32.3195 23.0996L34.7433 21.2397L30.3009 8.24987C29.9283 8.57385 29.4992 8.8449 29.0185 9.04402C19.9109 12.8166 12.8176 19.9098 9.04525 29.0173C8.91411 29.3341 8.75117 29.6282 8.56323 29.899L10.8645 30.7196C10.9449 30.0262 11.211 29.3648 11.647 28.7967C12.2826 27.9683 13.2029 27.437 14.2381 27.3008C14.4115 27.2779 14.5844 27.2666 14.7565 27.2666C15.6114 27.2666 16.4384 27.5459 17.1281 28.075C17.9566 28.7108 18.4878 29.6309 18.6242 30.6663C18.7465 31.5957 18.5296 32.5163 18.0425 33.2789L28.7252 37.0878L29.13 36.1103C29.2672 35.7794 29.5871 35.5796 29.9243 35.5796C30.0339 35.5796 30.1453 35.6007 30.2529 35.6452C30.6913 35.8268 30.8995 36.3296 30.718 36.7681L30.3462 37.6657L41.7517 41.7324L39.5315 35.2411Z" fill="black"/>
<path d="M9.28123 20.9451C9.27865 20.9491 9.27152 20.96 9.26877 20.964C9.00563 21.3587 8.47307 21.4646 8.07819 21.2018C7.684 20.9393 7.57709 20.4066 7.838 20.0117C8.00257 19.7589 8.27791 19.6209 8.55918 19.6209C8.71834 19.6209 8.8793 19.6651 9.02299 19.7575C9.42225 20.0142 9.53784 20.5459 9.28123 20.9451Z" fill="black"/>
<path d="M7.97429 23.08C7.13683 24.5483 6.38402 26.0851 5.73683 27.6473C5.55524 28.0859 5.05225 28.2939 4.61406 28.1123C4.17552 27.9307 3.96738 27.428 4.14905 26.9896C4.82366 25.361 5.60844 23.7591 6.48139 22.2285C6.63995 21.9506 6.93007 21.7947 7.22862 21.7947C7.37299 21.7947 7.51934 21.8312 7.65358 21.9077C8.06582 22.1429 8.2095 22.6678 7.97429 23.08Z" fill="black"/>
<path d="M26.8926 33.0012C26.7223 33.0237 26.5493 33.035 26.3784 33.035C24.4262 33.035 22.7616 31.5737 22.5065 29.6358C22.2252 27.4987 23.7348 25.5311 25.8719 25.2497C26.0422 25.2272 26.2152 25.2159 26.3861 25.2159C28.3382 25.2159 30.0028 26.6772 30.258 28.6153C30.5393 30.7523 29.0296 32.7198 26.8926 33.0012ZM28.554 28.8396C28.411 27.7536 27.479 26.9347 26.3861 26.9347C26.29 26.9347 26.1925 26.941 26.0963 26.9538C24.8988 27.1115 24.053 28.2139 24.2106 29.4115C24.3536 30.4974 25.2855 31.3162 26.3784 31.3162C26.4745 31.3162 26.572 31.3098 26.6682 31.2971C27.8657 31.1393 28.7116 30.0369 28.554 28.8396Z" fill="black"/>
<path d="M26.669 22.3117C26.4986 22.3342 26.3257 22.3455 26.1548 22.3455C24.2026 22.3455 22.538 20.8842 22.2829 18.9462C22.1465 17.9109 22.4215 16.8846 23.0572 16.0561C23.6928 15.2277 24.613 14.6964 25.6483 14.56C25.8186 14.5376 25.9915 14.5263 26.1622 14.5263C28.1145 14.5263 29.7792 15.9877 30.0343 17.9258C30.3157 20.0627 28.806 22.0301 26.669 22.3117ZM28.3304 18.15C28.1874 17.064 27.2553 16.2451 26.1624 16.2451C26.0664 16.2451 25.9689 16.2515 25.8728 16.2642C25.2927 16.3406 24.7771 16.6383 24.4209 17.1025C24.0647 17.5666 23.9106 18.1417 23.987 18.7219C24.13 19.8078 25.062 20.6267 26.1548 20.6267C26.2509 20.6267 26.3484 20.6203 26.4446 20.6076C27.642 20.4499 28.4879 19.3474 28.3304 18.15Z" fill="black"/>
<path d="M21.001 25.8719L18.3596 26.2197C17.8893 26.2822 17.4574 25.9504 17.3954 25.4799C17.3334 25.0093 17.6647 24.5777 18.1352 24.5157L20.7765 24.1679C20.8146 24.1629 20.8524 24.1605 20.8898 24.1605C21.3144 24.1605 21.6838 24.4752 21.7407 24.9077C21.8028 25.3782 21.4716 25.8099 21.001 25.8719Z" fill="black"/>
<path d="M19.6616 19.5299L19.4283 21.3023C19.3664 21.7729 18.9348 22.1043 18.4642 22.0421C17.9936 21.9802 17.6624 21.5486 17.7244 21.078L17.9577 19.3056C18.0146 18.8731 18.3839 18.5583 18.8086 18.5583C18.8459 18.5583 18.8838 18.5607 18.9217 18.5658C19.3923 18.6278 19.7235 19.0593 19.6616 19.5299Z" fill="black"/>
</g>
<defs>
<clipPath id="clip0_669_763">
<rect width="44" height="44" fill="white" transform="matrix(1 0 0 -1 0 44)"/>
</clipPath>
</defs>
</svg>

<svg width="44" height="44" fill="none" xmlns="http://www.w3.org/2000/svg"><g clip-path="url(#clip0_669_763)" fill="#000"><path d="M43.745 43.752a.859.859 0 01-.892.198L7.159 31.223a4.698 4.698 0 01-4.256.338A4.706 4.706 0 01.359 25.42a46.08 46.08 0 0110.038-15.023A46.078 46.078 0 0125.42.358 4.675 4.675 0 0127.213 0a4.71 4.71 0 014.35 2.902 4.687 4.687 0 01-.026 3.65l12.418 36.31a.86.86 0 01-.21.89zM12.563 31.325l3.783 1.349a2.186 2.186 0 00-.264-3.235 2.176 2.176 0 00-1.62-.434 2.176 2.176 0 00-1.451.838c-.329.428-.485.95-.448 1.482zM29.974 3.56a2.985 2.985 0 00-3.896-1.614C15.075 6.504 6.505 15.074 1.947 26.077a2.962 2.962 0 000 2.282 2.963 2.963 0 001.614 1.614 2.963 2.963 0 002.282 0 2.963 2.963 0 001.614-1.613 38.432 38.432 0 018.373-12.531 38.434 38.434 0 0112.53-8.373 2.985 2.985 0 001.614-3.896zm7.635 26.06a2.176 2.176 0 00-1.685.855 2.176 2.176 0 00-.434 1.62 2.193 2.193 0 002.458 1.885c.37-.048.716-.192 1.012-.41l-1.35-3.95zm1.922 5.621a3.91 3.91 0 11-2.493-7.29l-1.708-4.995-1.964 1.507a.86.86 0 01-1.047-1.363l2.424-1.86-4.442-12.99a4.68 4.68 0 01-1.282.794C19.91 12.817 12.817 19.91 9.044 29.017a4.63 4.63 0 01-.482.882l2.301.82a3.88 3.88 0 01.783-1.922 3.883 3.883 0 013.11-1.53c.854 0 1.681.279 2.371.808a3.884 3.884 0 011.496 2.591 3.9 3.9 0 01-.581 2.613l10.682 3.809.405-.978a.86.86 0 011.588.658l-.372.898 11.406 4.066-2.22-6.49z"/><path d="M9.281 20.945l-.012.019a.858.858 0 01-1.431-.952.86.86 0 011.443.933zM7.974 23.08a40.676 40.676 0 00-2.237 4.567.86.86 0 01-1.588-.657 42.393 42.393 0 012.332-4.761.86.86 0 111.493.851zm18.919 9.921a3.918 3.918 0 01-4.386-3.365 3.914 3.914 0 013.88-4.42 3.918 3.918 0 013.871 3.4A3.914 3.914 0 0126.893 33zm1.661-4.161a2.195 2.195 0 00-2.458-1.886 2.193 2.193 0 00-1.885 2.457 2.194 2.194 0 002.457 1.886 2.193 2.193 0 001.886-2.457zm-1.885-6.528a3.918 3.918 0 01-4.386-3.365 3.883 3.883 0 01.774-2.89 3.884 3.884 0 013.105-1.53 3.918 3.918 0 013.872 3.399 3.914 3.914 0 01-3.365 4.386zm1.661-4.162a2.195 2.195 0 00-2.457-1.886 2.176 2.176 0 00-1.452.838 2.176 2.176 0 00-.434 1.62 2.195 2.195 0 002.458 1.886 2.193 2.193 0 001.885-2.458zm-7.329 7.722l-2.641.348a.86.86 0 11-.225-1.704l2.641-.348a.86.86 0 01.225 1.704zm-1.339-6.342l-.234 1.772a.859.859 0 11-1.704-.224l.234-1.772a.86.86 0 011.704.224z"/></g><defs><clipPath id="clip0_669_763"><path fill="#fff" transform="matrix(1 0 0 -1 0 44)" d="M0 0h44v44H0z"/></clipPath></defs></svg>
